X:1087
T:Galway Rambler, The
R:reel
H:Usually in G #485
D:The Mulcahy Family: The Reel Note
Z:id:hn-reel-1087
M:C|
L:1/8
K:D
D2AD BDAF | D2AF EAFE | D2AD BDAB |1 dBAF EAFE :|2 dBAF E2FA ||
d3f edfe | defd edBc | d2fd edfe | dBAF E2FA |
d3f edfe | defd ~e3g | fdef dBAF | BFAF EAFE ||

